dist/img/svg/ic_app-store.svg

<svg width="29" height="27" viewBox="0 0 29 27"  xmlns="http://www.w3.org/2000/svg">
<path d="M18.4144 2.29727C18.2698 1.75715 17.9238 1.30562 17.4401 1.0261C16.4417 0.44897 15.1602 0.792553 14.5836 1.7924L14.2617 2.35044L13.9398 1.79232C13.3633 0.79272 12.0819 0.44897 11.0833 1.02602H11.0832C10.0847 1.60323 9.74137 2.88604 10.3179 3.8858L11.847 6.53733L6.20472 16.321H2.09116C0.938093 16.321 0 17.2602 0 18.4145C0 19.5689 0.938093 20.508 2.09116 20.508H17.9722L15.5575 16.321H11.034L18.2055 3.88589C18.4847 3.40162 18.559 2.83739 18.4144 2.29727Z" />
<path d="M26.4323 16.321H22.3187L17.6423 8.21216L15.2277 12.3991L22.4885 24.9892C22.7678 25.4736 23.2187 25.82 23.7583 25.9648C23.9385 26.0131 24.1213 26.037 24.303 26.037C24.6653 26.037 25.023 25.9419 25.3453 25.7556C26.3439 25.1784 26.6871 23.8955 26.1106 22.8959L24.7333 20.508H26.4323C27.5853 20.508 28.5234 19.5688 28.5234 18.4145C28.5234 17.2601 27.5853 16.321 26.4323 16.321Z" />
<path d="M2.82443 22.1827L2.41314 22.8959C1.83665 23.8955 2.18002 25.1784 3.17859 25.7555C3.50707 25.9453 3.86608 26.0356 4.22065 26.0355C4.94386 26.0355 5.64825 25.66 6.03519 24.9892L7.65375 22.1827H2.82443Z" />
</svg>

<svg width="29" height="27" viewBox="0 0 29 27" xmlns="http://www.w3.org/2000/svg"><path d="M18.414 2.297a2.092 2.092 0 00-3.83-.505l-.322.558-.322-.558a2.092 2.092 0 00-2.857-.766 2.097 2.097 0 00-.765 2.86l1.529 2.651-5.642 9.784H2.09a2.095 2.095 0 000 4.187h15.881l-2.415-4.187h-4.523l7.171-12.435c.28-.484.354-1.049.21-1.589z"/><path d="M26.432 16.321H22.32l-4.677-8.109-2.414 4.187 7.26 12.59a2.102 2.102 0 001.815 1.048 2.097 2.097 0 001.808-3.141l-1.378-2.388h1.7a2.095 2.095 0 000-4.187zM2.824 22.183l-.41.713c-.577 1-.234 2.282.765 2.86a2.092 2.092 0 002.857-.766l1.618-2.807h-4.83z"/></svg>
